static/images/mobile/copyright/wikipedia-tagline-iu.svg

<?xml version="1.0" encoding="UTF-8"?>
<svg width="120px" height="10px" viewBox="0 0 120 10" version="1.1" xmlns="http://www.w3.org/2000/svg" xmlns:xlink="http://www.w3.org/1999/xlink">
    <title>iu-tagline</title>
    <g id="Page-1" stroke="none" stroke-width="1" fill="none" fill-rule="evenodd">
        <path d="M6.01921411,8.86004008 L3.60646907,3.98281769 L1.1785479,8.86004008 L6.01921411,8.86004008 Z M3.60646907,2.53497483 L7.19777237,9.56666625 L0,9.56666625 L3.60646907,2.53497483 Z M8.43702477,9.56666625 C8.43702477,9.16146739 8.49603038,8.76862517 8.61406231,8.38812949 C8.73208388,8.0076338 8.9360966,7.63455616 9.22610045,7.26888642 C9.40481617,7.03170154 9.61641176,6.82909705 9.8608976,6.66109319 C10.1053731,6.49307922 10.3540647,6.35471715 10.6069725,6.24600699 C10.8598803,6.13729683 11.1052053,6.05823857 11.3429369,6.00881198 C11.5806686,5.95940564 11.7787766,5.93470246 11.9372713,5.93469234 L11.9372713,2.69310146 L12.7668098,2.69310146 L12.7668098,6.65120585 C12.1733145,6.65120585 11.6607551,6.71544827 11.2291315,6.843923 C10.7974976,6.97240784 10.4164474,7.21618092 10.0859808,7.57526246 C9.94098403,7.71032538 9.81789685,7.85857479 9.71673994,8.01999045 C9.61557267,8.18141624 9.5337977,8.34942009 9.47141502,8.52402225 C9.40903233,8.69861429 9.36266487,8.87568576 9.33232297,9.05522653 C9.30197072,9.2347673 9.28341752,9.40524046 9.27667372,9.56666625 L8.43702477,9.56666625 Z M19.2513871,8.86004008 L19.2513871,9.56666625 L14.0212383,9.56666625 L14.0212383,2.69310146 L14.8608976,2.69310146 L14.8608976,8.86004008 L19.2513871,8.86004008 Z M26.5149192,8.86004008 L24.1021742,3.98281769 L21.674253,8.86004008 L26.5149192,8.86004008 Z M24.1021742,2.53497483 L27.6934671,9.56666625 L20.4956947,9.56666625 L24.1021742,2.53497483 Z M30.4248797,5.53938082 C30.6373248,5.53938082 30.8320661,5.46032257 31.0091036,5.30218582 C31.1861308,5.1440693 31.2746599,4.9365262 31.2746599,4.67956663 C31.2746599,4.55109191 31.250202,4.4324944 31.2013069,4.32378424 C31.1524118,4.21507408 31.0883406,4.1220096 31.0091036,4.0445908 C30.9298563,3.967172 30.8388099,3.90705858 30.7359644,3.86422018 C30.6331086,3.82140202 30.5294137,3.79998788 30.4248797,3.79998788 C30.3203457,3.79998788 30.2183394,3.82140202 30.1188607,3.86422018 C30.0193819,3.90705858 29.9300241,3.967172 29.8507767,4.0445908 C29.7715397,4.1220096 29.7091467,4.21507408 29.6636287,4.32378424 C29.6181003,4.4324944 29.5953413,4.55109191 29.5953413,4.67956663 C29.5953413,4.9365262 29.6796439,5.1440693 29.8482491,5.30218582 C30.0168543,5.46032257 30.209068,5.53938082 30.4248797,5.53938082 L30.4248797,5.53938082 Z M30.4147692,6.12740949 C30.2056909,6.12740949 30.011799,6.09034967 29.833073,6.01623002 C29.6543573,5.94211038 29.4975511,5.83916867 29.3626649,5.70738468 C29.2277786,5.57562092 29.1224056,5.42161317 29.0465353,5.24536143 C28.9706547,5.06911981 28.9327195,4.88052155 28.9327195,4.67956663 C28.9327195,4.4687345 28.9706547,4.27436777 29.0465353,4.09647658 C29.1224056,3.91858538 29.2277786,3.76375791 29.3626649,3.63197391 C29.4975511,3.50021015 29.6543573,3.39561887 29.833073,3.31818995 C30.011799,3.24078127 30.2056909,3.20207187 30.4147692,3.20207187 C30.6204601,3.20207187 30.8168899,3.24078127 31.0040483,3.31818995 C31.1911964,3.39561887 31.3522084,3.50021015 31.4870946,3.63197391 C31.6219808,3.76375791 31.7290424,3.91858538 31.8082898,4.09647658 C31.8875371,4.27436777 31.9271505,4.4687345 31.9271608,4.67956663 C31.9271505,4.72569407 31.9237837,4.78910664 31.9170399,4.86981448 C31.9102961,4.95052231 31.9018638,5.03370957 31.8917533,5.11935601 C31.8816324,5.20501257 31.8656172,5.2832511 31.8436973,5.35407159 C31.8217774,5.4249022 31.8006965,5.47349894 31.7804755,5.49985169 L33.5912929,5.49985169 L33.5912929,6.12740949 L30.4147692,6.12740949 Z M38.3611545,7.40230988 C38.3611545,7.21124231 38.3265861,7.03005196 38.2574596,6.85874895 C38.1883228,6.68744595 38.0922211,6.5359075 37.9691443,6.40413362 C37.8460571,6.27235974 37.7010604,6.16611889 37.5341437,6.08541105 C37.3672167,6.00470322 37.1910286,5.96434425 37.0055587,5.96434425 C36.8268326,5.96434425 36.6556998,6.00470322 36.4921602,6.08541105 C36.3286103,6.16611889 36.1869802,6.27235974 36.0672701,6.40413362 C35.94756,6.5359075 35.8514584,6.68909552 35.7789548,6.86368756 C35.7064513,7.03828972 35.6702047,7.2178305 35.6702047,7.40230988 C35.6702047,7.58350023 35.701396,7.76221115 35.7637787,7.93845277 C35.8261614,8.11470451 35.9155192,8.26953199 36.0318626,8.40295544 C36.1481956,8.53636878 36.2898257,8.64425921 36.4567527,8.72661662 C36.6236694,8.80897403 36.8066013,8.85015274 37.0055587,8.85015274 C37.1977724,8.85015274 37.3790157,8.81062361 37.5493095,8.73155523 C37.7196032,8.65249698 37.8629218,8.5479057 37.9792548,8.41778139 C38.0955878,8.28765709 38.1883228,8.13446907 38.2574596,7.95821733 C38.3265861,7.78197572 38.3611545,7.5966766 38.3611545,7.40230988 L38.3611545,7.40230988 Z M41.0571596,8.85015274 L41.0571596,9.56666625 L37.0055587,9.56666625 C36.7088111,9.56666625 36.4289281,9.50737255 36.1659098,9.38877505 C35.9028811,9.27017755 35.6727323,9.11123119 35.4754634,8.91192585 C35.2781944,8.71262052 35.1230768,8.4820137 35.0101105,8.22011552 C34.8971442,7.95822745 34.8406662,7.68232305 34.8406662,7.39242254 C34.8406662,7.09594396 34.8971442,6.81757025 35.0101105,6.55732164 C35.1230768,6.29707304 35.2781944,6.06894565 35.4754634,5.87292934 C35.6727323,5.67692316 35.9028811,5.52373514 36.1659098,5.4133754 C36.4289281,5.30301566 36.7088111,5.24783073 37.0055587,5.24783073 C37.2955626,5.24783073 37.573757,5.30631482 37.8401628,5.42325262 C38.1065478,5.54021067 38.3392242,5.6983373 38.5381817,5.89763252 C38.7371391,6.09694797 38.8956235,6.3283644 39.0136554,6.59191216 C39.131677,6.85545992 39.1906826,7.13217393 39.1906929,7.42207444 C39.1906826,7.53737279 39.1805721,7.66090891 39.1603407,7.79268279 C39.140099,7.92445667 39.1089076,8.0554007 39.0667667,8.185525 C39.024605,8.31565942 38.9689661,8.43836569 38.89985,8.55366404 C38.8307132,8.66897251 38.7489382,8.76779533 38.6545251,8.85015274 L41.0571596,8.85015274 Z M44.8457235,6.61167672 L44.0971137,6.61167672 L44.0971137,5.32689911 C43.8711801,5.30054636 43.6494646,5.26513611 43.4319643,5.22065825 C43.214462,5.17619052 43.0222514,5.11029852 42.8553337,5.02299238 C42.6884129,4.93570648 42.5552142,4.81299009 42.4557385,4.65485334 C42.3562598,4.49673683 42.3065225,4.28590469 42.3065225,4.02234681 C42.3065225,3.69621633 42.3908241,3.44585507 42.5594303,3.27125291 C42.7280355,3.09666086 42.938792,2.96570671 43.1917019,2.87840057 C43.4446087,2.79111467 43.7194354,2.73839905 44.016183,2.72027394 C44.3129265,2.70216907 44.5894397,2.69310146 44.8457235,2.69310146 L44.8457235,3.32065925 L44.739501,3.32065925 C44.5540322,3.32066937 44.3626649,3.32808741 44.1653991,3.34290324 C43.9681281,3.3577292 43.7868775,3.38820083 43.6216462,3.43431815 C43.4564109,3.48044558 43.3215267,3.55127619 43.2169927,3.64679986 C43.1124556,3.74234376 43.0601876,3.86751934 43.0601897,4.02234681 L43.0601897,4.03223416 C43.0601876,4.18707175 43.1192004,4.3114276 43.2372251,4.4053118 C43.3552477,4.49920613 43.5044637,4.57497535 43.6848732,4.63261947 C43.8652795,4.6902737 44.0583323,4.7289831 44.2640335,4.74874767 C44.4697296,4.76851223 44.6636256,4.77839957 44.8457235,4.77838945 L44.8457235,6.61167672 Z M46.7223038,5.3565409 C46.7223038,5.58055953 46.786373,5.7601003 46.9145144,5.89516321 C47.0426527,6.03023625 47.1960838,6.0977677 47.3748078,6.0977677 C47.5535277,6.0977677 47.7086443,6.03023625 47.8401597,5.89516321 C47.9716688,5.7601003 48.0374275,5.58055953 48.0374275,5.3565409 C48.0374275,5.1259442 47.9716688,4.94311439 47.8401597,4.80804136 C47.7086443,4.67297844 47.5535277,4.60544699 47.3748078,4.60544699 C47.1960838,4.60544699 47.0426527,4.67297844 46.9145144,4.80804136 C46.786373,4.94311439 46.7223038,5.1259442 46.7223038,5.3565409 L46.7223038,5.3565409 Z M46.0900322,2.69310146 L46.8335837,2.69310146 L46.8335837,4.20518674 C46.9583501,4.15578039 47.05867,4.12447891 47.1345444,4.11129241 C47.2104157,4.09812615 47.2837583,4.09153797 47.3545754,4.09152785 C47.5400391,4.09153797 47.7120162,4.12529864 47.8705078,4.19283009 C48.0289952,4.26037167 48.1672513,4.35178657 48.285278,4.46708492 C48.4032996,4.58238327 48.4951892,4.7174563 48.5609479,4.87228378 C48.6267015,5.02712138 48.6595824,5.1918362 48.6595824,5.36642824 C48.6595824,5.5410304 48.6267015,5.70409564 48.5609479,5.85563408 C48.4951892,6.00717253 48.4032996,6.13894641 48.285278,6.2509456 C48.1672513,6.36295492 48.0289952,6.45108079 47.8705078,6.51531309 C47.7120162,6.57955551 47.5400391,6.61167672 47.3545754,6.61167672 C47.1724795,6.61167672 47.0055597,6.57955551 46.8538161,6.51531309 C46.7020704,6.45108079 46.5697149,6.36295492 46.4567496,6.2509456 C46.3437833,6.13894641 46.2544223,6.00717253 46.1886667,5.85563408 C46.12291,5.70409564 46.0900322,5.5410304 46.0900322,5.36642824 L46.0900322,2.69310146 Z M53.5154247,8.56355138 L57.5821924,6.12740949 L53.5154247,3.68632899 L53.5154247,8.56355138 Z M52.7061177,9.72973149 L52.7061177,2.52508749 L58.8366189,6.12740949 L52.7061177,9.72973149 Z M63.136063,5.98410881 L63.136063,6.61167672 L61.901869,6.61167672 C61.6388424,6.6248531 61.3968935,6.57543663 61.1760223,6.46342731 C60.955147,6.35142812 60.7637797,6.20153925 60.6019193,6.01376072 C60.4400579,5.82598218 60.3144462,5.60691228 60.2250863,5.3565409 C60.1357243,5.10617963 60.0910443,4.85251922 60.0910443,4.59555965 C60.0910443,4.3682621 60.1374108,4.13600571 60.2301447,3.8988107 C60.3228765,3.66162581 60.4518601,3.45079368 60.6170944,3.26630417 C60.7823267,3.08183491 60.9779092,2.93523508 61.2038418,2.8265148 C61.4297713,2.71781476 61.6691915,2.6733369 61.9221024,2.69310146 L63.1765279,2.69310146 L63.1765279,3.32065925 L62.2761734,3.32065925 C61.9929144,3.32066937 61.7577093,3.35607962 61.5705591,3.42691023 C61.3834049,3.49774084 61.2350321,3.59409436 61.1254408,3.71598089 C61.0158453,3.83787755 60.939973,3.97787907 60.8978227,4.13600571 C60.8556704,4.29413234 60.8345947,4.45884716 60.8345958,4.63015016 C60.8345947,4.79157595 60.8556704,4.95300173 60.8978227,5.1144174 C60.939973,5.27584318 61.0141589,5.42078332 61.1203824,5.54925804 C61.2266018,5.67774289 61.3699163,5.78233417 61.5503267,5.863042 C61.730732,5.94375995 61.9625652,5.98410881 62.2458253,5.98410881 L63.136063,5.98410881 Z M68.1487084,7.90633156 C68.1487084,8.15670294 68.1006514,8.3930681 68.0045508,8.61543715 C67.9084408,8.83780621 67.7735567,9.03134308 67.5998972,9.1960579 C67.4262295,9.36077272 67.2255887,9.49089702 66.9979748,9.58643081 C66.7703536,9.6819646 66.5284058,9.72973149 66.2721271,9.72973149 C66.0192172,9.72973149 65.7806402,9.6819646 65.5563961,9.58643081 C65.33215,9.49089702 65.1348811,9.36077272 64.9645904,9.1960579 C64.7942977,9.03134308 64.6611,8.83780621 64.5649953,8.61543715 C64.4688895,8.3930681 64.4208376,8.15670294 64.4208376,7.90633156 L64.4208376,2.68321412 L65.2604938,2.68321412 L65.2604938,6.37943045 C65.5639821,6.18177469 65.9011925,6.08294175 66.2721271,6.08294175 C66.5284058,6.08294175 66.7703536,6.13070864 66.9979748,6.22624243 C67.2255887,6.32177621 67.4262295,6.45190052 67.5998972,6.61661533 C67.7735567,6.78133015 67.9084408,6.97487715 68.0045508,7.19723608 C68.1006514,7.41960514 68.1487084,7.6559703 68.1487084,7.90633156 L68.1487084,7.90633156 Z M67.405157,7.90633156 C67.405157,7.75809227 67.375648,7.61150256 67.3166392,7.46654218 C67.2576243,7.32160205 67.1758504,7.19147774 67.0713185,7.07616928 C66.9667793,6.96087093 66.846227,6.86945602 66.7096595,6.80192457 C66.5730857,6.73439311 66.4272416,6.70062232 66.2721271,6.70062232 C66.1136355,6.70062232 65.9669492,6.73439311 65.8320671,6.80192457 C65.6971798,6.86945602 65.5799994,6.96087093 65.4805238,7.07616928 C65.3810451,7.19147774 65.3018008,7.32160205 65.24279,7.46654218 C65.1837762,7.61150256 65.1542723,7.75809227 65.1542723,7.90633156 C65.1542723,8.06116916 65.1837762,8.20941857 65.24279,8.35106967 C65.3018008,8.49272077 65.3810451,8.62120561 65.4805238,8.73650396 C65.5799994,8.85180231 65.6971798,8.94321722 65.8320671,9.01074867 C65.9669492,9.07829025 66.1136355,9.11205092 66.2721271,9.11205092 C66.4272416,9.11205092 66.5730857,9.07829025 66.7096595,9.01074867 C66.846227,8.94321722 66.9667793,8.85180231 67.0713185,8.73650396 C67.1758504,8.62120561 67.2576243,8.49272077 67.3166392,8.35106967 C67.375648,8.20941857 67.405157,8.06116916 67.405157,7.90633156 L67.405157,7.90633156 Z M71.5730888,6.12740949 C71.3505271,6.12741961 71.1566301,6.16941804 70.9913988,6.25341491 C70.8261634,6.33743201 70.6870641,6.44861148 70.5740999,6.58696343 C70.4611325,6.72533562 70.3768299,6.88016309 70.3211921,7.0514661 C70.2655501,7.22276911 70.2377306,7.39737127 70.2377317,7.57526246 C70.2377306,7.76962919 70.2739804,7.95245899 70.3464829,8.123762 C70.4189812,8.29506501 70.5134006,8.44660345 70.6297398,8.57837733 C70.746076,8.71015121 70.8809601,8.81474249 71.0343933,8.89216129 C71.1878224,8.96956997 71.3437822,9.00827937 71.5022738,9.00827937 L71.5022738,9.72973149 C71.245991,9.72973149 70.9913967,9.67537641 70.738491,9.56666625 C70.4855801,9.45795608 70.261335,9.30723737 70.0657546,9.11452022 C69.8701711,8.92180307 69.7099951,8.69449541 69.5852287,8.43259723 C69.4604592,8.17070917 69.3980755,7.88492754 69.3980755,7.57526246 C69.3980755,7.28207292 69.4545586,7.00616851 69.567525,6.74756949 C69.6804892,6.48896034 69.8356068,6.26001322 70.0328757,6.06069776 C70.2301436,5.86140254 70.4602893,5.70244606 70.7233159,5.58384856 C70.9863384,5.46526118 71.2695964,5.40595737 71.5730888,5.40595737 L75.6145658,5.40595737 L75.6145658,6.12740949 L71.5730888,6.12740949 Z M82.0940806,8.86004008 L82.0940806,9.56666625 L76.8639339,9.56666625 L76.8639339,2.69310146 L77.7035901,2.69310146 L77.7035901,8.86004008 L82.0940806,8.86004008 Z M76.6211417,0.65721982 C76.6211417,0.469451403 76.6868974,0.312974349 76.8184096,0.187778537 C76.9499219,0.0626029658 77.1050385,-6.21724894e-15 77.2837614,-6.21724894e-15 C77.4489937,-6.21724894e-15 77.6024249,0.0642525428 77.7440549,0.192717148 C77.8856818,0.321212114 77.9564979,0.476039591 77.9564979,0.65721982 C77.9564979,0.825233793 77.8907402,0.973483202 77.7592289,1.10194781 C77.6277156,1.23043265 77.4692261,1.29466496 77.2837614,1.29466496 C77.1185271,1.29466496 76.9667824,1.23373181 76.8285264,1.11183515 C76.6902693,0.989948612 76.6211417,0.838410169 76.6211417,0.65721982 L76.6211417,0.65721982 Z M83.3383903,2.69310146 L84.1780465,2.69310146 L84.1780465,7.70373719 C84.1780444,8.12211242 84.2707773,8.44578372 84.4562451,8.67473085 C84.6417098,8.90368809 84.9317105,9.01816671 85.3262505,9.01816671 C85.5184579,9.01816671 85.6946512,8.96298178 85.8548292,8.85262204 C86.0150011,8.7422623 86.1515717,8.60966869 86.2645411,8.45484122 C86.3775033,8.30000362 86.4651778,8.14270684 86.5275656,7.98293063 C86.5899463,7.82315442 86.6211376,7.69385997 86.6211417,7.59502703 L87.4506812,7.59502703 C87.4506812,7.87833935 87.3882923,8.14764545 87.263529,8.40295544 C87.1387564,8.65826544 86.9760528,8.88392352 86.7754161,9.07992971 C86.5747712,9.27594601 86.3488396,9.43324279 86.0976213,9.55184029 C85.8463959,9.6704378 85.5892719,9.72973149 85.3262505,9.72973149 C84.6922914,9.72973149 84.202492,9.54360253 83.8568524,9.17134461 C83.5112096,8.79909681 83.3383903,8.30000362 83.3383903,7.67408528 L83.3383903,2.69310146 Z M91.2392503,6.61167672 L90.4906416,6.61167672 L90.4906416,5.32689911 C90.2647069,5.30054636 90.0429914,5.26513611 89.8254922,5.22065825 C89.6079888,5.17619052 89.4157792,5.11029852 89.2488605,5.02299238 C89.0819397,4.93570648 88.948742,4.81299009 88.8492653,4.65485334 C88.7497876,4.49673683 88.7000493,4.28590469 88.7000493,4.02234681 C88.7000493,3.69621633 88.7843509,3.44585507 88.9529582,3.27125291 C89.1215623,3.09666086 89.3323188,2.96570671 89.5852287,2.87840057 C89.8381355,2.79111467 90.1129622,2.73839905 90.4097109,2.72027394 C90.7064533,2.70216907 90.9829665,2.69310146 91.2392503,2.69310146 L91.2392503,3.32065925 L91.1330288,3.32065925 C90.94756,3.32066937 90.7561927,3.32808741 90.5589269,3.34290324 C90.3616559,3.3577292 90.1804043,3.38820083 90.015173,3.43431815 C89.8499376,3.48044558 89.7150535,3.55127619 89.6105195,3.64679986 C89.5059824,3.74234376 89.4537154,3.86751934 89.4537164,4.02234681 L89.4537164,4.03223416 C89.4537154,4.18707175 89.5127272,4.3114276 89.6307519,4.4053118 C89.7487745,4.49920613 89.8979905,4.57497535 90.0784,4.63261947 C90.2588063,4.6902737 90.451859,4.7289831 90.6575603,4.74874767 C90.8632564,4.76851223 91.0571534,4.77839957 91.2392503,4.77838945 L91.2392503,6.61167672 Z M97.9514405,6.41895958 L93.7481022,6.41895958 L97.7996959,9.56666625 L96.5452694,9.56666625 L92.4835601,6.41895958 L92.4835601,5.70244606 L94.3247328,5.70244606 L97.1219011,5.70244606 L97.1219011,2.68321412 L97.9514405,2.68321412 L97.9514405,6.41895958 Z M99.2008086,6.12740949 L105.331309,2.52508749 L105.331309,9.72973149 L99.2008086,6.12740949 Z M104.52706,3.88893348 L100.556397,6.12740949 L104.52706,8.36094689 L104.52706,3.88893348 Z M107.329286,5.98410881 L109.711684,5.98410881 L109.711684,6.61167672 L106.585735,6.61167672 L106.585735,2.69310146 L107.329286,2.69310146 L107.329286,5.98410881 Z M111.79565,3.40466624 L111.79565,9.56666625 L110.955993,9.56666625 L110.955993,2.69310146 L116.18614,2.69310146 L116.18614,3.40466624 L111.79565,3.40466624 Z M118.06272,5.3565409 C118.06272,5.58055953 118.12679,5.7601003 118.254931,5.89516321 C118.38307,6.03023625 118.536501,6.0977677 118.715224,6.0977677 C118.893944,6.0977677 119.049062,6.03023625 119.180576,5.89516321 C119.312086,5.7601003 119.377845,5.58055953 119.377845,5.3565409 C119.377845,5.1259442 119.312086,4.94311439 119.180576,4.80804136 C119.049062,4.67297844 118.893944,4.60544699 118.715224,4.60544699 C118.536501,4.60544699 118.38307,4.67297844 118.254931,4.80804136 C118.12679,4.94311439 118.06272,5.1259442 118.06272,5.3565409 L118.06272,5.3565409 Z M117.43045,2.69310146 L118.174,2.69310146 L118.174,4.20518674 C118.298768,4.15578039 118.399088,4.12447891 118.474962,4.11129241 C118.550832,4.09812615 118.624176,4.09153797 118.694992,4.09152785 C118.880457,4.09153797 119.052434,4.12529864 119.210925,4.19283009 C119.369412,4.26037167 119.507669,4.35178657 119.625696,4.46708492 C119.743716,4.58238327 119.835606,4.7174563 119.901366,4.87228378 C119.967118,5.02712138 120,5.1918362 120,5.36642824 C120,5.5410304 119.967118,5.70409564 119.901366,5.85563408 C119.835606,6.00717253 119.743716,6.13894641 119.625696,6.2509456 C119.507669,6.36295492 119.369412,6.45108079 119.210925,6.51531309 C119.052434,6.57955551 118.880457,6.61167672 118.694992,6.61167672 C118.512896,6.61167672 118.345977,6.57955551 118.194234,6.51531309 C118.042487,6.45108079 117.910131,6.36295492 117.797167,6.2509456 C117.684201,6.13894641 117.59484,6.00717253 117.529084,5.85563408 C117.463328,5.70409564 117.43045,5.5410304 117.43045,5.36642824 L117.43045,2.69310146 Z" id="iu-tagline" fill="#000000" fill-rule="nonzero"></path>
    </g>
</svg>

<svg xmlns="http://www.w3.org/2000/svg" width="120" height="10"><path fill="#000" fill-rule="nonzero" d="M6.02 8.86 3.605 3.983 1.18 8.86h4.84ZM3.605 2.535l3.592 7.032H0l3.606-7.032Zm4.831 7.032c0-.406.059-.798.177-1.179.118-.38.322-.753.612-1.12.179-.236.39-.439.635-.607.244-.168.493-.306.746-.415.253-.109.498-.188.736-.237.238-.05.436-.074.594-.074V2.693h.83v3.958c-.594 0-1.106.064-1.538.193a2.513 2.513 0 0 0-1.143.731 2.212 2.212 0 0 0-.37.445c-.1.161-.182.33-.245.504a3.123 3.123 0 0 0-.139.531c-.03.18-.049.35-.055.512h-.84Zm10.814-.707v.707h-5.23V2.693h.84V8.86h4.39Zm7.264 0-2.413-4.877-2.428 4.877h4.84Zm-2.413-6.325 3.591 7.032h-7.197l3.606-7.032Zm6.323 3.004c.212 0 .407-.079.584-.237a.795.795 0 0 0 .266-.622.857.857 0 0 0-.074-.356.861.861 0 0 0-.776-.524.767.767 0 0 0-.306.064.878.878 0 0 0-.268.18.837.837 0 0 0-.187.28.912.912 0 0 0-.069.356c0 .257.085.464.253.622a.82.82 0 0 0 .577.237Zm-.01.588a1.474 1.474 0 0 1-1.052-.42 1.429 1.429 0 0 1-.43-1.027c0-.211.038-.406.114-.584.075-.177.18-.332.316-.464.135-.132.291-.236.47-.314a1.527 1.527 0 0 1 1.171 0c.187.078.348.182.483.314s.242.287.321.464c.08.178.12.373.12.584 0 .046-.004.11-.011.19-.007.08-.015.164-.025.25-.01.085-.026.163-.048.234a.505.505 0 0 1-.064.146h1.811v.627h-3.176Zm7.946 1.275a1.46 1.46 0 0 0-.827-1.317 1.2 1.2 0 0 0-.528-.12c-.18 0-.35.04-.514.12-.163.081-.305.187-.425.32-.12.13-.216.284-.288.459a1.392 1.392 0 0 0-.109.538c0 .182.031.36.094.536a1.347 1.347 0 0 0 .693.788c.167.083.35.124.549.124a1.306 1.306 0 0 0 .974-.432c.116-.13.208-.284.277-.46.07-.176.104-.361.104-.556Zm2.696 1.448v.717h-4.051a2.02 2.02 0 0 1-.84-.178 2.28 2.28 0 0 1-.69-.477c-.198-.2-.353-.43-.466-.692a2.068 2.068 0 0 1-.17-.828c0-.296.057-.574.17-.835a2.149 2.149 0 0 1 1.995-1.31c.29 0 .569.06.835.176a2.26 2.26 0 0 1 1.174 1.169c.118.263.177.54.177.83a2.51 2.51 0 0 1-.124.763c-.042.13-.098.253-.167.369-.07.115-.151.214-.245.296h2.402Zm3.789-2.238h-.749V5.327a7.869 7.869 0 0 1-.665-.106 2.183 2.183 0 0 1-.577-.198c-.167-.087-.3-.21-.4-.368-.099-.158-.148-.37-.148-.633 0-.326.084-.576.252-.75.169-.175.38-.306.633-.394.253-.087.527-.14.824-.158.297-.018.573-.027.83-.027v.628h-.106c-.186 0-.377.007-.575.022a2.805 2.805 0 0 0-.543.091.979.979 0 0 0-.405.213.485.485 0 0 0-.157.375v.01c0 .155.06.28.177.373.118.094.267.17.448.228.18.057.373.096.579.116.206.02.4.03.582.03v1.833Zm1.876-1.255c0 .224.064.403.193.538a.628.628 0 0 0 .926 0c.13-.135.196-.314.196-.538 0-.231-.065-.414-.197-.549a.628.628 0 0 0-.925 0c-.129.135-.193.318-.193.549Zm-.632-2.664h.744v1.512c.124-.05.225-.08.3-.094a1.303 1.303 0 0 1 1.15.356 1.236 1.236 0 0 1 .376.9 1.216 1.216 0 0 1-.79 1.148 1.36 1.36 0 0 1-.515.097 1.25 1.25 0 0 1-1.166-.756 1.216 1.216 0 0 1-.099-.49V2.693Zm7.425 5.87 4.067-2.436-4.067-2.44v4.877Zm-.809 1.167V2.525l6.13 3.602-6.13 3.603Zm10.43-3.746v.628h-1.234a1.42 1.42 0 0 1-.726-.149 1.864 1.864 0 0 1-.574-.45 2.052 2.052 0 0 1-.377-.656 2.249 2.249 0 0 1-.134-.761c0-.228.046-.46.14-.697.092-.237.22-.448.386-.633.165-.184.36-.33.587-.44a1.38 1.38 0 0 1 .718-.133h1.255v.628h-.9c-.284 0-.52.035-.706.106-.188.07-.336.167-.446.289-.11.122-.185.262-.227.42a1.91 1.91 0 0 0 0 .978c.042.162.116.307.222.435.107.129.25.233.43.314.18.08.413.121.696.121h.89Zm5.013 1.922a1.768 1.768 0 0 1-.55 1.29 1.98 1.98 0 0 1-.601.39c-.228.096-.47.144-.726.144-.253 0-.491-.048-.716-.144a1.932 1.932 0 0 1-.591-.39 1.783 1.783 0 0 1-.544-1.29V2.683h.84V6.38c.303-.197.64-.296 1.011-.296.256 0 .498.048.726.143.228.096.428.226.602.39a1.768 1.768 0 0 1 .549 1.29Zm-.744 0c0-.148-.03-.294-.088-.44a1.315 1.315 0 0 0-.246-.39 1.207 1.207 0 0 0-.361-.274.974.974 0 0 0-.438-.101.97.97 0 0 0-.44.1 1.126 1.126 0 0 0-.351.275c-.1.115-.18.246-.238.39a1.157 1.157 0 0 0 0 .885c.059.142.138.27.238.386.099.115.216.206.351.274a.969.969 0 0 0 .44.101.974.974 0 0 0 .438-.101c.136-.068.257-.16.361-.274.105-.116.187-.244.246-.386.059-.142.088-.29.088-.445Zm4.168-1.779c-.222 0-.416.042-.582.126a1.281 1.281 0 0 0-.417.334 1.423 1.423 0 0 0-.253.464 1.685 1.685 0 0 0-.083.524c0 .195.036.377.108.549.073.171.167.323.284.454.116.132.251.237.404.314.154.078.31.116.468.116v.722a1.92 1.92 0 0 1-.764-.163 2.172 2.172 0 0 1-.672-.452 2.391 2.391 0 0 1-.48-.682 1.967 1.967 0 0 1-.188-.858c0-.293.057-.569.17-.827a2.246 2.246 0 0 1 1.155-1.164c.263-.119.547-.178.85-.178h4.042v.721h-4.042ZM82.094 8.86v.707h-5.23V2.693h.84V8.86h4.39ZM76.621.657c0-.188.066-.344.197-.47A.653.653 0 0 1 77.284 0c.165 0 .318.064.46.193a.605.605 0 0 1 .015.909.674.674 0 0 1-.93.01.582.582 0 0 1-.208-.455Zm6.717 2.036h.84v5.01c0 .42.093.743.278.972.186.229.476.343.87.343a.912.912 0 0 0 .529-.165c.16-.11.297-.243.41-.398.113-.155.2-.312.263-.472.062-.16.093-.29.093-.388h.83c0 .283-.063.553-.187.808a2.477 2.477 0 0 1-1.166 1.149 1.789 1.789 0 0 1-.772.178c-.634 0-1.124-.186-1.47-.559-.345-.372-.518-.871-.518-1.497v-4.98Zm7.901 3.919h-.748V5.327a7.868 7.868 0 0 1-.666-.106 2.183 2.183 0 0 1-.576-.198c-.167-.087-.3-.21-.4-.368-.1-.158-.149-.37-.149-.633 0-.326.084-.576.253-.75.169-.175.38-.306.632-.394.253-.087.528-.14.825-.158.296-.018.573-.027.83-.027v.628h-.107c-.185 0-.377.007-.574.022a2.805 2.805 0 0 0-.544.091.979.979 0 0 0-.404.213.485.485 0 0 0-.157.375v.01c0 .155.059.28.177.373.118.094.267.17.447.228.18.057.374.096.58.116.205.02.4.03.581.03v1.833Zm6.712-.193h-4.203L97.8 9.567h-1.255l-4.061-3.148v-.717h4.638V2.683h.83V6.42Zm1.25-.292 6.13-3.602V9.73l-6.13-3.603Zm5.326-2.238-3.97 2.238 3.97 2.234V3.889Zm2.802 2.095h2.383v.628h-3.126V2.693h.743v3.291Zm4.467-2.58v6.163h-.84V2.693h5.23v.712h-4.39Zm6.267 1.953c0 .224.064.403.192.538a.628.628 0 0 0 .926 0c.131-.135.197-.314.197-.538 0-.231-.066-.414-.197-.549a.628.628 0 0 0-.926 0c-.128.135-.192.318-.192.549Zm-.633-2.664h.744v1.512c.125-.05.225-.08.301-.094a1.303 1.303 0 0 1 1.15.356 1.236 1.236 0 0 1 .375.9 1.216 1.216 0 0 1-.79 1.148 1.36 1.36 0 0 1-.515.097 1.25 1.25 0 0 1-1.166-.756 1.216 1.216 0 0 1-.099-.49V2.693Z"/></svg>
